assets/img/foot.svg

<svg width="16" height="13" viewBox="0 0 16 13" fill="none" xmlns="http://www.w3.org/2000/svg">
<path d="M8.42852 2.5715C8.42852 1.61378 9.10166 0.714355 10.0714 0.714355C11.0411 0.714355 11.7142 1.61378 11.7142 2.5715C11.7142 3.52921 11.0417 4.42864 10.0714 4.42864C9.10109 4.42864 8.42852 3.52921 8.42852 2.5715ZM0.714233 4.5715C0.714233 3.61378 1.38738 2.71436 2.35709 2.71436C3.3268 2.71436 3.99995 3.61378 3.99995 4.5715C3.99995 5.52921 3.3268 6.42864 2.35709 6.42864C1.38738 6.42864 0.714233 5.52921 0.714233 4.5715ZM7.99995 5.28578C7.37526 5.28578 6.75721 5.41381 6.18393 5.66197C5.61065 5.91013 5.09431 6.27314 4.66679 6.72862C4.23927 7.18409 3.90964 7.72235 3.69823 8.31018C3.48683 8.89801 3.39815 9.52292 3.43766 10.1464C3.49366 11.0458 4.0068 11.7012 4.68052 12.1161C5.34566 12.5252 6.1828 12.7144 6.97595 12.7144H9.02395C9.81766 12.7144 10.6542 12.5252 11.3194 12.1161C11.9937 11.7012 12.5062 11.0458 12.5622 10.1464C12.5683 10.0507 12.5714 9.95436 12.5714 9.85721C12.5714 8.64479 12.0897 7.48203 11.2324 6.62472C10.3751 5.76742 9.21237 5.28578 7.99995 5.28578ZM11.9999 4.5715C11.9999 3.61378 12.6725 2.71436 13.6428 2.71436C14.6131 2.71436 15.2857 3.61378 15.2857 4.5715C15.2857 5.52921 14.6131 6.42864 13.6428 6.42864C12.6725 6.42864 11.9999 5.52921 11.9999 4.5715ZM4.28566 2.5715C4.28566 1.61378 4.9588 0.714355 5.92852 0.714355C6.89823 0.714355 7.57138 1.61378 7.57138 2.5715C7.57138 3.52921 6.89823 4.42864 5.92852 4.42864C4.9588 4.42864 4.28566 3.52921 4.28566 2.5715Z" fill="#E74F2C"/>
</svg>

<svg xmlns="http://www.w3.org/2000/svg" width="16" height="13" fill="none"><path fill="#E74F2C" d="M8.429 2.572c0-.958.673-1.858 1.642-1.858.97 0 1.643.9 1.643 1.858 0 .957-.672 1.857-1.643 1.857-.97 0-1.642-.9-1.642-1.858m-7.715 2c0-.958.673-1.858 1.643-1.858S4 3.614 4 4.572c0 .957-.673 1.857-1.643 1.857S.714 5.529.714 4.572M8 5.286a4.57 4.57 0 0 0-4.562 4.86c.056.9.569 1.555 1.243 1.97.665.41 1.502.598 2.295.598h2.048c.794 0 1.63-.189 2.295-.598.675-.415 1.187-1.07 1.243-1.97q.01-.143.01-.289A4.57 4.57 0 0 0 8 5.286m4-.714c0-.958.672-1.858 1.643-1.858.97 0 1.643.9 1.643 1.858 0 .957-.673 1.857-1.643 1.857S12 5.529 12 4.572m-7.714-2c0-.958.673-1.858 1.643-1.858s1.642.9 1.642 1.858c0 .957-.673 1.857-1.642 1.857-.97 0-1.643-.9-1.643-1.858"/></svg>
